icon/fa/align-center.svg

<svg xmlns="http://www.w3.org/2000/svg" viewBox="0 0 448 512"><!--! Font Awesome Free 6.1.2 by @fontawesome - https://fontawesome.com License - https://fontawesome.com/license/free (Icons: CC BY 4.0, Fonts: SIL OFL 1.1, Code: MIT License) Copyright 2022 Fonticons, Inc.--><path d="M320 96H128c-17.7 0-32-14.33-32-32s14.3-32 32-32h192c17.7 0 32 14.33 32 32s-14.3 32-32 32zm96 128H32c-17.67 0-32-14.3-32-32s14.33-32 32-32h384c17.7 0 32 14.3 32 32s-14.3 32-32 32zM0 448c0-17.7 14.33-32 32-32h384c17.7 0 32 14.3 32 32s-14.3 32-32 32H32c-17.67 0-32-14.3-32-32zm320-96H128c-17.7 0-32-14.3-32-32s14.3-32 32-32h192c17.7 0 32 14.3 32 32s-14.3 32-32 32z"/></svg>

<svg xmlns="http://www.w3.org/2000/svg" viewBox="0 0 448 512" height="1em" width="1em">
<!--! Font Awesome Free 6.1.2 by @fontawesome - https://fontawesome.com License - https://fontawesome.com/license/free (Icons: CC BY 4.0, Fonts: SIL OFL 1.1, Code: MIT License) Copyright 2022 Fonticons, Inc.-->
  <path d="M320 96H128C110.3 96 96 81.67 96 64C96 46.33 110.3 32 128 32H320C337.7 32 352 46.33 352 64C352 81.67 337.7 96 320 96zM416 224H32C14.33 224 0 209.7 0 192C0 174.3 14.33 160 32 160H416C433.7 160 448 174.3 448 192C448 209.7 433.7 224 416 224zM0 448C0 430.3 14.33 416 32 416H416C433.7 416 448 430.3 448 448C448 465.7 433.7 480 416 480H32C14.33 480 0 465.7 0 448zM320 352H128C110.3 352 96 337.7 96 320C96 302.3 110.3 288 128 288H320C337.7 288 352 302.3 352 320C352 337.7 337.7 352 320 352z"/>
</svg>
